images/form.svg

<svg height="250" viewBox="0 0 250 250" width="250" xmlns="http://www.w3.org/2000/svg"><path d="m250 125c0 69.035156-55.964844 125-125 125s-125-55.964844-125-125 55.964844-125 125-125 125 55.964844 125 125zm0 0" fill="#070618"/><path d="m172.78125 100.921875c.003906-.488281-.25-.9375-.671875-1.1875l-13.125-8.152344c-.183594-.113281-.390625-.179687-.605469-.195312l-10.429687-.808594-12.652344-18.535156-10.429687-32.15625c-.183594-.605469-.753907-1.003907-1.382813-.96875-.613281.046875-1.136719.464843-1.3125 1.054687l-7.910156 33.621094h-6.5c-.558594.003906-1.0625.339844-1.277344.859375l-6.75 16.28125-15.589844 3.277344c-.398437.089843-.742187.339843-.945312.695312l-5.835938 10.792969c-.078125.175781-.125.359375-.144531.550781v.382813l9.355469 46.21875c.070312.324218.246093.621094.5.835937l19.050781 14.785157 9.738281 16.152343 11.925781 25.855469c.238282.511719.765626.828125 1.332032.800781.429687-.042969.808594-.292969 1.019531-.671875l.058594.035156 14.875-23.136718 18.394531-28.277344c.101562-.15625.171875-.339844.195312-.527344v-.03125l9.042969-57.394531h-.03125c.074219-.011719.105469-.078125.105469-.15625zm-24.632812-3.355469-9.320313 1.917969-8.878906 1.855469 7.75-8.789063 1.136719-1.308593.109374-.109376.21875.140626 2.222657 1.550781zm-3.75-7.292968 1 1.472656.691406 1-1.53125-1.074219-2.222656-1.550781-2.441407-1.71875-1.328125-4.71875-.914062-3.277344zm-20.648438-44.832032 8.964844 27.605469 4.46875 15.863281-.671875.75-1.132813 1.308594-1.128906 1.304688-7.460938 8.5-2.878906-9.324219-.441406-1.417969-.4375-1.417969-1.914062-6.164062c0-.03125-.035157-.03125-.054688-.054688-.023438-.0625-.042969-.128906-.054688-.195312l-4.105468-7.402344zm-9.203125 30.9375 1.222656 2.222656-3.355469-2.222656zm-12.75 16.777344.636719-1.550781.640625-1.554688 1.675781-4.078125 3.683594-8.933594 6.929687 4.574219 1.917969 1.277344-8.25 5.910156-5.609375 4-2.136719 1.527344zm8.375-1.75 2.804687-2 2-1.421875 4.023438-2.882813 1.023438 3.277344.441406 1.421875.441406 1.417969 3.386719 10.9375h-18.128907l-5.597656-3.882812zm-24.800781 5.191406 13.125-2.75-1.605469 3.917969c-.257813.601563-.046875 1.300781.5 1.660156l7.601563 5.25c.226562.167969.5.253907.78125.25h20.417968c.09375.007813.1875-.003906.277344-.03125l25.378906-5.25c.449219-.097656.824219-.410156 1-.835937.164063-.4375.109375-.921875-.144531-1.3125l-2.75-4.023438 7.855469.605469 10.882812 6.75-14.042968 8.023437-43.554688 2.296876-30.351562-6zm27.378906 17.253906 41.144531-2.167968 3.410157 22.386718-19.585938 45.050782-12.90625-13.894532zm7.988281 46.082032-17.089843-22.277344-21.808594-29.4375 28 5.542969zm-39.535156-47.933594 19.5 26.359375-11.871094 11.320313zm8.875 40.273438 12.292969-11.703126 18.535156 24.160157-13.289062 1.1875zm19.441406 16.25 11.980469-1.039063-4.71875 13.089844zm19.34375 37.375-10.25-22.191407 5.464844-15.203125 12.488281 13.457032zm13.949219-20.089844-9.132812 14.238281 5.6875-17.667969 15.226562-14.628906zm-.640625-10.019532 15.898437-36.570312 2.828126 18.558594zm20.199219-26.570312-5.796875-38.25 4.160156-2.390625 8.84375-5.046875zm0 0" fill="#fff"/></svg>

<svg xmlns="http://www.w3.org/2000/svg" xmlns:xlink="http://www.w3.org/1999/xlink" width="250px" height="250px" viewBox="0 0 250 250" version="1.1">
<g id="surface1">
<path style=" stroke:none;fill-rule:nonzero;fill:rgb(2.745098%,2.352941%,9.411765%);fill-opacity:1;" d="M 250 125 C 250 194.035156 194.035156 250 125 250 C 55.964844 250 0 194.035156 0 125 C 0 55.964844 55.964844 0 125 0 C 194.035156 0 250 55.964844 250 125 Z M 250 125 "/>
<path style=" stroke:none;fill-rule:nonzero;fill:rgb(100%,100%,100%);fill-opacity:1;" d="M 172.78125 100.921875 C 172.785156 100.433594 172.53125 99.984375 172.109375 99.734375 L 158.984375 91.582031 C 158.800781 91.46875 158.59375 91.402344 158.378906 91.386719 L 147.949219 90.578125 L 135.296875 72.042969 L 124.867188 39.886719 C 124.683594 39.28125 124.113281 38.882812 123.484375 38.917969 C 122.871094 38.964844 122.347656 39.382812 122.171875 39.972656 L 114.261719 73.59375 L 107.761719 73.59375 C 107.203125 73.597656 106.699219 73.933594 106.484375 74.453125 L 99.734375 90.734375 L 84.144531 94.011719 C 83.746094 94.101562 83.402344 94.351562 83.199219 94.707031 L 77.363281 105.5 C 77.285156 105.675781 77.238281 105.859375 77.21875 106.050781 L 77.21875 106.433594 L 86.574219 152.652344 C 86.644531 152.976562 86.820312 153.273438 87.074219 153.488281 L 106.125 168.273438 L 115.863281 184.425781 L 127.789062 210.28125 C 128.027344 210.792969 128.554688 211.109375 129.121094 211.082031 C 129.550781 211.039062 129.929688 210.789062 130.140625 210.410156 L 130.199219 210.445312 L 145.074219 187.308594 L 163.46875 159.03125 C 163.570312 158.875 163.640625 158.691406 163.664062 158.503906 L 163.664062 158.472656 L 172.707031 101.078125 L 172.675781 101.078125 C 172.75 101.066406 172.78125 101 172.78125 100.921875 Z M 148.148438 97.566406 L 138.828125 99.484375 L 129.949219 101.339844 L 137.699219 92.550781 L 138.835938 91.242188 L 138.945312 91.132812 L 139.164062 91.273438 L 141.386719 92.824219 Z M 144.398438 90.273438 L 145.398438 91.746094 L 146.089844 92.746094 L 144.558594 91.671875 L 142.335938 90.121094 L 139.894531 88.402344 L 138.566406 83.683594 L 137.652344 80.40625 Z M 123.75 45.441406 L 132.714844 73.046875 L 137.183594 88.910156 L 136.511719 89.660156 L 135.378906 90.96875 L 134.25 92.273438 L 126.789062 100.773438 L 123.910156 91.449219 L 123.46875 90.03125 L 123.03125 88.613281 L 121.117188 82.449219 C 121.117188 82.417969 121.082031 82.417969 121.0625 82.394531 C 121.039062 82.332031 121.019531 82.265625 121.007812 82.199219 L 116.902344 74.796875 Z M 114.546875 76.378906 L 115.769531 78.601562 L 112.414062 76.378906 Z M 101.796875 93.15625 L 102.433594 91.605469 L 103.074219 90.050781 L 104.75 85.972656 L 108.433594 77.039062 L 115.363281 81.613281 L 117.28125 82.890625 L 109.03125 88.800781 L 103.421875 92.800781 L 101.285156 94.328125 Z M 110.171875 91.40625 L 112.976562 89.40625 L 114.976562 87.984375 L 119 85.101562 L 120.023438 88.378906 L 120.464844 89.800781 L 120.90625 91.21875 L 124.292969 102.15625 L 106.164062 102.15625 L 100.566406 98.273438 Z M 85.371094 96.597656 L 98.496094 93.847656 L 96.890625 97.765625 C 96.632812 98.367188 96.84375 99.066406 97.390625 99.425781 L 104.992188 104.675781 C 105.21875 104.84375 105.492188 104.929688 105.773438 104.925781 L 126.191406 104.925781 C 126.285156 104.933594 126.378906 104.921875 126.46875 104.894531 L 151.847656 99.644531 C 152.296875 99.546875 152.671875 99.234375 152.847656 98.808594 C 153.011719 98.371094 152.957031 97.886719 152.703125 97.496094 L 149.953125 93.472656 L 157.808594 94.078125 L 168.691406 100.828125 L 154.648438 108.851562 L 111.09375 111.148438 L 80.742188 105.148438 Z M 112.75 113.851562 L 153.894531 111.683594 L 157.304688 134.070312 L 137.71875 179.121094 L 124.8125 165.226562 Z M 120.738281 159.933594 L 103.648438 137.65625 L 81.839844 108.21875 L 109.839844 113.761719 Z M 81.203125 112 L 100.703125 138.359375 L 88.832031 149.679688 Z M 90.078125 152.273438 L 102.371094 140.570312 L 120.90625 164.730469 L 107.617188 165.917969 Z M 109.519531 168.523438 L 121.5 167.484375 L 116.78125 180.574219 Z M 128.863281 205.898438 L 118.613281 183.707031 L 124.078125 168.503906 L 136.566406 181.960938 Z M 142.8125 185.808594 L 133.679688 200.046875 L 139.367188 182.378906 L 154.59375 167.75 Z M 142.171875 175.789062 L 158.070312 139.21875 L 160.898438 157.777344 Z M 162.371094 149.21875 L 156.574219 110.96875 L 160.734375 108.578125 L 169.578125 103.53125 Z M 162.371094 149.21875 "/>
</g>
</svg>
